!!!OTL: HEEDELBEERN WER WILL MIR DAS DING VERWEHREN
!!!ARE: Europa, Mitteleuropa, Deutschland, Sachsen
!!!SCT: E1860
!!!YEM: Copyright 1995, estate of Helmut Schaffrath.
**kern
*ICvox
*Ivox
*M2/4
*k[b-]
*F:
=1
{8.cc
16b-
4a
=2
8.cc
16b-
4a}
=3
{8g
8a
8b-
8g
=4
8a
8b-
8cc
8a}
=5
{8g
8a
8b-
8g
=6
8a
8b-
8cc
8a}
=7
{8.cc
16b-
4a
=8
8.cc
16b-
4a}
==
!!!AGN: Kinder - Lied
!!!ONB: ESAC (Essen Associative Code) Database: ERK3
!!!AMT: simple duple
!!!AIN: vox
!!!EED: Helmut Schaffrath
!!!EEV: 1.0
*-
